X:5
T:Biscuit Shuffle
C:Cliff Stapleton
R:scottische
M:C|
K:D
D2FA G2E2|GFEF AFD2|EFGA E2GF|[1 EGBd c2A2:|[2 EDEF D4:|\
d2d2 =c3B|AdBG A4|EFGA E2GF|[1 EGBd c2A2:|[2 EDEF D4:|

